X:501
T: O WEH DER ZEIT DIE ICH VERZEHRT
N: E0470
O: Europa, Mitteleuropa, Deutschland
R: Liebes - Lied, Klage
M: 3/4
L: 1/8
K: F
F2 | F4G2 | A4F2 | A4B2 | c4
c2 | A4d2 | c4B2 | A2GFG2 | F4
F2 | F4G2 | A4F2 | A4B2 | c4
c2 | A4d2 | c4B2 | A2GFG2 | F4
F2 | A4A2 | G3AB2 | c4B2 | c4
c2 | c4c2 | d4d2 | c2BAB2 | A4
A2 | A4F2 | G4
c2 | d4d2 | c3BAG | F2B4 | A2G4 | F4

